modules/feather/icons/shield-off.svg

<?xml version="1.0" encoding="UTF-8"?>
<svg width="24px" height="24px" viewBox="0 0 24 24" version="1.1" xmlns="http://www.w3.org/2000/svg" xmlns:xlink="http://www.w3.org/1999/xlink">
    <g id="shield-off" fill-rule="evenodd">
        <path d="M18.3226411,16.9084275 C18.3260532,16.9117915 18.3294363,16.9151747 18.3327903,16.9185768 L23.7071068,22.2928932 C24.0976311,22.6834175 24.0976311,23.3165825 23.7071068,23.7071068 C23.3165825,24.0976311 22.6834175,24.0976311 22.2928932,23.7071068 L17.6401455,19.0543591 C16.121178,20.5844244 14.3771106,21.8763724 12.4666757,22.8844285 C12.1814764,23.0349162 11.84121,23.038639 11.5527864,22.8944272 C11.2759078,22.7559879 10.811078,22.4986714 10.2200011,22.1292483 C9.2398841,21.5166752 8.25994003,20.8062158 7.34149539,20.0025767 C4.64575967,17.6438079 3,14.9694485 3,12 L3,5 C3,4.83264951 3.04167142,4.67237698 3.11678567,4.53099923 L0.292893219,1.70710678 C-0.0976310729,1.31658249 -0.0976310729,0.683417511 0.292893219,0.292893219 C0.683417511,-0.0976310729 1.31658249,-0.0976310729 1.70710678,0.292893219 L5.42202529,4.00781173 C5.43258429,4.01791538 5.44293065,4.02825996 5.45306124,4.03884767 L18.3226412,16.9084276 Z M5,6.41421356 L5,12 C5,14.2805515 6.35424033,16.4811921 8.65850461,18.4974233 C9.49005997,19.2250342 10.3851159,19.8739498 11.2799989,20.4332517 C11.5365354,20.593587 11.7774838,20.7366834 11.998466,20.8619095 C13.5501022,19.9878786 14.9726632,18.9035031 16.2259211,17.6401347 L5,6.41421356 Z M11.999259,3.06772261 L9.18982355,4.11681561 C8.67243458,4.31001782 8.0963866,4.04721252 7.90318439,3.52982355 C7.70998218,3.01243458 7.97278748,2.4363866 8.49017645,2.24318439 L11.6501765,1.06318439 C11.8762316,0.978771403 12.1251857,0.978944168 12.3511234,1.06367082 L20.3511234,4.06367082 C20.7414272,4.21003472 21,4.58315544 21,5 L20.9999783,12.0065872 C20.9948627,12.7831685 20.8752673,13.5547516 20.6450508,14.2964423 C20.4813302,14.8239023 19.9210177,15.1187713 19.3935577,14.9550508 C18.8660977,14.7913302 18.5712287,14.2310177 18.7349492,13.7035577 C18.9068831,13.1496368 18.9962012,12.5733912 19,12 L19,5.69300047 L11.999259,3.06772261 Z" id="Combined-Shape" fill="#000000" fill-rule="nonzero"></path>
    </g>
</svg>

<svg width="24" height="24" viewBox="0 0 24 24" xmlns="http://www.w3.org/2000/svg"><path d="M18.323 16.908l.01.01 5.374 5.375a1 1 0 0 1-1.414 1.414l-4.653-4.653a21.29 21.29 0 0 1-5.173 3.83 1 1 0 0 1-.914.01 17.31 17.31 0 0 1-1.333-.765 22.465 22.465 0 0 1-2.879-2.126C4.646 17.643 3 14.969 3 12V5c0-.167.042-.328.117-.469L.293 1.707A1 1 0 1 1 1.707.293l3.715 3.715.031.03 12.87 12.87zM5 6.414V12c0 2.28 1.354 4.481 3.659 6.497a20.49 20.49 0 0 0 3.34 2.365 19.29 19.29 0 0 0 4.227-3.222L5 6.414zm7-3.346L9.19 4.117a1 1 0 0 1-.7-1.874l3.16-1.18a1 1 0 0 1 .701 0l8 3A1 1 0 0 1 21 5v7.007a7.9 7.9 0 0 1-.355 2.29 1 1 0 0 1-1.91-.593A5.89 5.89 0 0 0 19 12V5.693l-7-2.625z" fill-rule="nonzero"/></svg>
